X:81
T: S ISCH WAHR I WILL NIMMAEMEH LIAEGE
N: E1107
O: Europa, Mitteleuropa, Deutschland; Frankreich, Elsass
R: Luegen - Lied, Maerchen
M: 3/8
L: 1/16
K: G
G2 | G4G2 | _B3AG2 | A2d2d2 | d2d2
dd | d3c_B2 | _B3AG2 | G4A2 | A3A
A2 | _B4B2 | _B3AG2 | A6 | D4
D2 | G3GG2 | _B3AG2 | G3dd2 | d4
d2 | d2c2_B2 | A4G2 | A6 | G4

@@@ Tune index: 4765
